packages/dnb-eufemia/assets/icons/savings_account.svg

<svg width="16" height="16" viewBox="0 0 16 16" fill="none" xmlns="http://www.w3.org/2000/svg">
<path d="M2.85882 4.89659L3.54077 4.58442L3.54069 4.58425L2.85882 4.89659ZM3.22759 4.0083L3.47675 4.7157L3.47676 4.7157L3.22759 4.0083ZM5.43545 4.14376L5.09693 4.81301C5.31453 4.92308 5.57206 4.92049 5.78741 4.80605L5.43545 4.14376ZM13.669 11.7297L14.2126 12.2465L14.2131 12.2459L13.669 11.7297ZM13.5332 11.9436L12.8328 11.6752C12.8265 11.6918 12.8208 11.7085 12.8156 11.7254L13.5332 11.9436ZM12.7301 14.5851L13.4316 14.8504C13.4375 14.8349 13.4428 14.8192 13.4477 14.8033L12.7301 14.5851ZM10.0173 14.4762L9.27374 14.5745C9.27566 14.589 9.27801 14.6035 9.28078 14.6179L10.0173 14.4762ZM9.90909 13.6575L10.6526 13.5592C10.6507 13.5449 10.6484 13.5307 10.6457 13.5165L9.90909 13.6575ZM7.56505 13.6575L6.82855 13.5158C6.82378 13.5405 6.82027 13.5655 6.81802 13.5907L7.56505 13.6575ZM7.49186 14.4762L8.2285 14.6172C8.2332 14.5926 8.23666 14.5679 8.23889 14.543L7.49186 14.4762ZM4.81818 14.5469L4.09361 14.7405C4.09618 14.7501 4.09894 14.7597 4.10189 14.7692L4.81818 14.5469ZM4.27218 12.5039L4.99675 12.3103C4.99425 12.3009 4.99157 12.2916 4.98871 12.2823L4.27218 12.5039ZM3.86364 12.0833L4.09839 11.3709L4.09811 11.3708L3.86364 12.0833ZM2.35864 6.92885L2.45575 7.67254L2.45692 7.67239L2.35864 6.92885ZM2.74045 6.70913L3.31682 7.18904L3.31769 7.18798L2.74045 6.70913ZM3.08886 6.28913L2.51175 5.81013L2.51162 5.81029L3.08886 6.28913ZM3.17955 5.59723L3.86155 5.28519L3.86149 5.28507L3.17955 5.59723ZM7.06667 5.49992C6.65245 5.49992 6.31667 5.8357 6.31667 6.24992C6.31667 6.66413 6.65245 6.99992 7.06667 6.99992V5.49992ZM10.3333 6.99992C10.7475 6.99992 11.0833 6.66413 11.0833 6.24992C11.0833 5.8357 10.7475 5.49992 10.3333 5.49992V6.99992ZM3.54069 4.58425C3.55183 4.60858 3.55074 4.63561 3.54217 4.65626C3.53348 4.67721 3.51179 4.70336 3.47675 4.7157L2.97843 3.30089C2.19423 3.5771 1.83849 4.47003 2.17695 5.20892L3.54069 4.58425ZM3.47676 4.7157C3.70053 4.63688 3.93713 4.59367 4.16877 4.59367V3.09367C3.75387 3.09367 3.34902 3.17036 2.97842 3.3009L3.47676 4.7157ZM4.16877 4.59367C4.50477 4.59367 4.82206 4.67398 5.09693 4.81301L5.77398 3.47451C5.29285 3.23114 4.74405 3.09367 4.16877 3.09367V4.59367ZM5.78741 4.80605C6.62749 4.35962 7.82712 4.08325 8.95455 4.08325V2.58325C7.62306 2.58325 6.17415 2.90188 5.0835 3.48147L5.78741 4.80605ZM8.95455 4.08325C12.0687 4.08325 14.25 6.21725 14.25 8.58325H15.75C15.75 5.21768 12.715 2.58325 8.95455 2.58325V4.08325ZM14.25 8.58325C14.25 9.57014 13.85 10.4494 13.125 11.2135L14.2131 12.2459C15.1554 11.2529 15.75 10.0178 15.75 8.58325H14.25ZM13.1255 11.2129C13.002 11.3428 12.9004 11.4989 12.8328 11.6752L14.2335 12.2119C14.2271 12.2288 14.219 12.2398 14.2126 12.2465L13.1255 11.2129ZM12.8156 11.7254L12.0125 14.3669L13.4477 14.8033L14.2508 12.1617L12.8156 11.7254ZM12.0286 14.3198C12.0422 14.2839 12.0813 14.2499 12.1364 14.2499V15.7499C12.7177 15.7499 13.229 15.386 13.4316 14.8504L12.0286 14.3198ZM12.1364 14.2499H10.6419V15.7499H12.1364V14.2499ZM10.6419 14.2499C10.7067 14.2499 10.7462 14.2951 10.7538 14.3345L9.28078 14.6179C9.40546 15.266 9.96869 15.7499 10.6419 15.7499V14.2499ZM10.7608 14.378L10.6526 13.5592L9.16555 13.7557L9.27374 14.5745L10.7608 14.378ZM10.6457 13.5165C10.5216 12.868 9.95819 12.3834 9.2845 12.3834V13.8834C9.21982 13.8834 9.18009 13.8383 9.17245 13.7984L10.6457 13.5165ZM9.2845 12.3834H8.18964V13.8834H9.2845V12.3834ZM8.18964 12.3834C7.51591 12.3834 6.95313 12.8682 6.82855 13.5158L8.30154 13.7991C8.29405 13.8381 8.255 13.8834 8.18964 13.8834V12.3834ZM6.81802 13.5907L6.74484 14.4094L8.23889 14.543L8.31207 13.7242L6.81802 13.5907ZM6.75523 14.3353C6.76297 14.2948 6.80314 14.2499 6.86727 14.2499V15.7499C7.5404 15.7499 8.1043 15.2662 8.2285 14.6172L6.75523 14.3353ZM6.86727 14.2499H5.42495V15.7499H6.86727V14.2499ZM5.42495 14.2499C5.48395 14.2499 5.52321 14.2883 5.53448 14.3246L4.10189 14.7692C4.28051 15.3447 4.81041 15.7499 5.42495 15.7499V14.2499ZM5.54275 14.3532L4.99675 12.3103L3.54761 12.6975L4.09361 14.7405L5.54275 14.3532ZM4.98871 12.2823C4.85733 11.8575 4.53115 11.5136 4.09839 11.3709L3.62888 12.7956C3.58748 12.7819 3.56358 12.7511 3.55565 12.7255L4.98871 12.2823ZM4.09811 11.3708C3.76344 11.2607 3.1156 10.9745 2.56646 10.5887C2.29306 10.3966 2.07342 10.2001 1.92856 10.0136C1.78272 9.82588 1.75 9.69789 1.75 9.62353H0.25C0.25 10.1447 0.4764 10.5894 0.743949 10.9338C1.01248 11.2795 1.3605 11.5747 1.70416 11.8161C2.38917 12.2974 3.17315 12.6456 3.62917 12.7957L4.09811 11.3708ZM1.75 9.62353V8.44293H0.25V9.62353H1.75ZM1.75 8.44293C1.75 8.06573 2.04191 7.72658 2.45575 7.67254L2.26152 6.18517C1.14173 6.3314 0.25 7.2717 0.25 8.44293H1.75ZM2.45692 7.67239C2.81979 7.62442 3.11682 7.42922 3.31681 7.18904L2.16409 6.22923C2.16872 6.22367 2.19658 6.19375 2.26035 6.18532L2.45692 7.67239ZM3.31769 7.18798L3.6661 6.76798L2.51162 5.81029L2.16321 6.23029L3.31769 7.18798ZM3.66597 6.76814C4.01122 6.35218 4.08528 5.77419 3.86155 5.28519L2.49754 5.90927C2.48317 5.87787 2.4866 5.84043 2.51175 5.81013L3.66597 6.76814ZM3.86149 5.28507L3.54077 4.58442L2.17687 5.20875L2.4976 5.9094L3.86149 5.28507ZM7.06667 6.99992H10.3333V5.49992H7.06667V6.99992Z" fill="black"/>
<path d="M7.76421 0.72225C7.46623 1.00996 7.45789 1.48476 7.7456 1.78275C8.03331 2.08073 8.50811 2.08906 8.8061 1.80136L7.76421 0.72225ZM9.06067 1.80136C9.35866 2.08906 9.83346 2.08073 10.1212 1.78275C10.4089 1.48476 10.4005 1.00996 10.1026 0.722249L9.06067 1.80136ZM8.8061 1.80136C8.83977 1.76884 8.88357 1.75 8.93339 1.75V0.25C8.47954 0.25 8.06631 0.43057 7.76421 0.72225L8.8061 1.80136ZM8.93339 1.75C8.9832 1.75 9.027 1.76884 9.06067 1.80136L10.1026 0.722249C9.80046 0.43057 9.38723 0.25 8.93339 0.25V1.75Z" fill="black"/>
</svg>

<svg width="16" height="16" viewBox="0 0 16 16" fill="none" xmlns="http://www.w3.org/2000/svg"><path d="m2.859 4.897.682-.313-.682.313Zm.369-.889.249.708-.25-.708Zm2.207.136-.338.67a.75.75 0 0 0 .69-.008l-.352-.662Zm8.234 7.586.544.517v-.001l-.544-.516Zm-.136.214-.7-.269a.802.802 0 0 0-.017.05l.717.219Zm-.803 2.641.702.265a.771.771 0 0 0 .016-.047l-.718-.218Zm-2.713-.109-.743.098.007.044.736-.142Zm-.108-.819.744-.098a.76.76 0 0 0-.007-.042l-.737.14Zm-2.344 0-.736-.141a.75.75 0 0 0-.011.075l.747.067Zm-.073.82.737.14a.746.746 0 0 0 .01-.074l-.747-.067Zm-2.674.07-.724.194.008.028.716-.222Zm-.546-2.043.725-.194a.812.812 0 0 0-.008-.028l-.717.222Zm-.408-.42.234-.713-.234.712ZM2.359 6.928l.097.744-.097-.744Zm.381-.22.577.48-.577-.48Zm.349-.42-.577-.479.577.48Zm.09-.692.683-.312-.682.312ZM7.068 5.5a.75.75 0 1 0 0 1.5V5.5ZM10.333 7a.75.75 0 0 0 0-1.5V7ZM7.764.722a.75.75 0 0 0 1.042 1.08L7.764.721Zm1.297 1.08a.75.75 0 0 0 1.042-1.08L9.06 1.802ZM3.54 4.583c.01.025.01.052.001.072a.111.111 0 0 1-.065.06L2.978 3.3a1.403 1.403 0 0 0-.801 1.908l1.364-.625Zm-.064.132c.224-.079.46-.122.692-.122v-1.5c-.415 0-.82.076-1.19.207l.498 1.415Zm.692-.122c.336 0 .653.08.928.22l.677-1.34a3.557 3.557 0 0 0-1.605-.38v1.5Zm1.618.212c.84-.446 2.04-.723 3.168-.723v-1.5c-1.332 0-2.78.319-3.872.899l.704 1.324Zm3.168-.723c3.114 0 5.295 2.134 5.295 4.5h1.5c0-3.365-3.035-6-6.795-6v1.5Zm5.295 4.5c0 .987-.4 1.866-1.125 2.63l1.088 1.033c.942-.993 1.537-2.228 1.537-3.663h-1.5Zm-1.124 2.63c-.124.13-.226.286-.293.462l1.4.537a.103.103 0 0 1-.02.035l-1.087-1.034Zm-.31.513-.804 2.641 1.436.436.803-2.641-1.435-.437Zm-.787 2.594a.114.114 0 0 1 .107-.07v1.5c.582 0 1.093-.364 1.296-.9l-1.403-.53Zm.107-.07h-1.494v1.5h1.494v-1.5Zm-1.494 0a.11.11 0 0 1 .112.085l-1.473.283a1.39 1.39 0 0 0 1.36 1.132v-1.5Zm.119.128-.108-.819-1.487.197.108.819 1.487-.197Zm-.115-.861a1.39 1.39 0 0 0-1.362-1.133v1.5a.11.11 0 0 1-.112-.085l1.474-.282Zm-1.362-1.133H8.19v1.5h1.095v-1.5Zm-1.094 0a1.39 1.39 0 0 0-1.361 1.132l1.473.283a.11.11 0 0 1-.112.085v-1.5ZM6.818 13.59l-.073.819 1.494.133.073-.819-1.494-.133Zm-.063.744a.111.111 0 0 1 .112-.085v1.5a1.39 1.39 0 0 0 1.362-1.133l-1.474-.282Zm.112-.085H5.425v1.5h1.442v-1.5Zm-1.442 0c.059 0 .098.038.11.075l-1.433.444c.179.576.708.981 1.323.981v-1.5Zm.118.103-.546-2.043-1.45.388.547 2.043 1.449-.388Zm-.554-2.07a1.388 1.388 0 0 0-.89-.912l-.47 1.425a.112.112 0 0 1-.073-.07l1.433-.444Zm-.89-.912a6.563 6.563 0 0 1-1.533-.782 2.995 2.995 0 0 1-.637-.575c-.146-.188-.179-.316-.179-.39H.25c0 .52.226.965.494 1.31.268.346.617.64.96.882.685.481 1.47.83 1.925.98l.47-1.425ZM1.75 9.624V8.443H.25v1.18h1.5Zm0-1.181c0-.377.292-.716.706-.77l-.194-1.488C1.142 6.331.25 7.272.25 8.443h1.5Zm.707-.77c.363-.048.66-.244.86-.484l-1.153-.96c.005-.005.033-.035.096-.044l.197 1.487Zm.86-.485.35-.42-1.155-.958-.349.42 1.155.958Zm.349-.42c.345-.416.42-.994.196-1.483l-1.364.624a.092.092 0 0 1 .014-.099l1.154.958Zm.195-1.483-.32-.7-1.364.624.32.7 1.364-.624ZM7.067 7h3.266V5.5H7.067V7Zm1.74-5.199a.18.18 0 0 1 .126-.051V.25c-.453 0-.867.18-1.169.472l1.042 1.08Zm.126-.051a.18.18 0 0 1 .128.051L10.103.722A1.68 1.68 0 0 0 8.933.25v1.5Z" fill="#000"/></svg>
